!!!OTL: 600. / b. Zottelbaer.
!!!ODT: 1840 (vor)
!!!ARE: Europa, Mitteleuropa, Deutschland, Thueringen
!!!SCT: K0600
!!!TXL: @@DE
!!!YEM: Copyright 1995, estate of Helmut Schaffrath.
**kern	**text
*clefG2	*
*M2/4	*
*k[f#]	*
*G:	*
=1	=1
{8d	Ja-
8g	-kob
8g	hat
8g	kein
=2	=2
8f#	Brot
8a	im
4g}	Haus,
=3	=3
{8d	Ja-
8f#	-kob
8a	macht
8cc	ſich
=4	=4
8b	gar-
8dd	-nichts
4g}	draus.
=5	=5
{8b	Ja-
8b	-kob
4cc	hin,
=6	=6
8a	Ja-
8a	-kob
4b}	her,
=7	=7
{8g	Ja-
8g	-kob
8a	iſt
8a	ein
=8	=8
8f#	Ʒot-
8f#	-tel-
4g}	-här.
==	==
!!!AGN: Kinder -, Spiel - Lied
!!!ONB: ESAC (Essen Associative Code) Database: KINDER
!!!AMT: simple duple
!!!AIN: vox
!!!EED: Helmut Schaffrath
!!!EEV: 1.0
!!Aus Thueringen vor 1840.
!!!GTL: V. Allerlei Reime aus der Kinderstube, mit welchen die Kleinen sich selbst unterhalten.
!!!URL-scan: https://archive.org/details/DeutschesKinderliedUndKinderspiel/page/130/mode/1up
!!!ENC: Anna Maria Matuszewska
!!!EEV: 2024/30/08
*-	*-
